X: 1
T: Scott Skinner's Welcome to Inverness
C: Alexander Batton Grant
R: strathspey, march
B:
Z: 2003 John Chambers <jc:trillian.mit.edu>
M: C
L: 1/8
K: A
e2 \
"A"\
| "A"A2 A<A c2 BA | c<e a>e c2 BA | "G"G2 G<G B2 AG | B<d g>d B2 AG |
| "A"A2 A<A c2 BA | c<e a>e c2 BA | "G"d>c B>A G>A B>d | "A"c2 A2 A2 :|
(3ef^g \
"B"\
| "A"a2 e2 c2 B<A | c<e a>e c2 BA | "G"g2 d2 B2 A<G | B<d g>d B2 AG |
| "A"a2 e2 c2 B<A | c<e a>e c2 BA | "G"d>c B>A G>A B>d | "A"c2 A2 A2 ||
(3ef^g \
| "A"a2 e2 c2 B<A | c<e a>e c2 BA | "G"g2 d2 B2 A<G | B<d g>d B2 AG |
| "A"A2 A<A c2 BA | c<e a>e c2 BA | "G"d>c B>A G>A B>d | "A"c2 A2 A2 |]
"C"\
|: e2 \
| "A"~A2 cA e>A c>A | ~A2 c<e c2 BA | "G"~G2 BG d>G B>G | ~G2 B<d B1 AG |
| "A"~A2 cA e>A c>A | ~A2 c<e c2 BA | "G"d>c B>A G>A B>d | "A"c2 A2 A2 :|
(3ef^g \
"D"\
| "A"a>^g a>e c<A c<e | a>^g a>e c2 BA | "G"g>f g>d B<G B<d | g>f g>d B2 AG |
| "A"a>^g a>e c<A c<e | a>^g a>e c2 BA | "G"d>c B>A G>A B>d | "A"c2 A2 A2 ||
(3ef^g \
| "A"a>^g a>e c<A c<e | a>^g a>e c2 BA | "G"g>f g>d B<G B<d | g>f g>d B2 AG |
| "A"A>A ~A2 c2 BA | c<e a>e c2 BA | "G"d>c B>A G>A B>d | "A"c2 A2 A2 :|
